actions/22x22-light/format-break-node.svg

<svg xmlns="http://www.w3.org/2000/svg" viewBox="0 0 22 22">
 <defs id="defs3051">
   <style type="text/css" id="current-color-scheme">
     .ColorScheme-Text {
       color:#4d4d4d;
     }
     </style>
 </defs>
   <path
      style="fill:currentColor;fill-opacity:1;stroke:none"
      d="m9 3v1h-6v1h6v2h4v-2h6v-1h-6v-1zm1 1h2v1 1h-2zm-7 12v3h3v-1h3v-1h-3v-1zm13 0v1h-3v1h3v1h3v-3zm-12 1h1v1h-1zm13 0h1v1h-1z"
      class="ColorScheme-Text" />
    <defs id="defs3051">
   <style type="text/css" id="current-color-scheme">
     .ColorScheme-Text {
       color:#3daee9;
     }
     </style>
 </defs>
   <path
      style="fill:currentColor;fill-opacity:1;stroke:none"
      d="m9 9.5 2 3 2-3z"
      class="ColorScheme-Text" />
</svg>

<svg xmlns="http://www.w3.org/2000/svg" viewBox="0 0 22 22">
  <defs id="defs3051">
    <style type="text/css" id="current-color-scheme">
      .ColorScheme-Text {
        color:#4d4d4d;
      }
      .ColorScheme-Highlight {
        color:#3daee9;
      }
      </style>
  </defs>
 <path 
     style="fill:currentColor;fill-opacity:1;stroke:none" 
     d="M 9 3 L 9 4 L 3 4 L 3 5 L 9 5 L 9 7 L 13 7 L 13 5 L 19 5 L 19 4 L 13 4 L 13 3 L 9 3 z M 10 4 L 12 4 L 12 5 L 12 6 L 10 6 L 10 4 z M 3 16 L 3 19 L 6 19 L 6 18 L 9 18 L 9 17 L 6 17 L 6 16 L 3 16 z M 16 16 L 16 17 L 13 17 L 13 18 L 16 18 L 16 19 L 19 19 L 19 16 L 16 16 z M 4 17 L 5 17 L 5 18 L 4 18 L 4 17 z M 17 17 L 18 17 L 18 18 L 17 18 L 17 17 z "
     class="ColorScheme-Text"
     />
 <path 
     style="fill:currentColor;fill-opacity:1;stroke:none" 
     d="M 9 9.5 L 11 12.5 L 13 9.5 L 9 9.5 z "
     class="ColorScheme-Highlight"
     />
</svg>
